X: 36867
T: Ships On The Calm Ocean
R: waltz
M: 3/4
K: Adorian
A4 G2|A4 B2|c4 d2|B2 A2 G2|
A4 G2|A4 B2|G6-|G6|
A4 G2|A4 B2|c4 d2|e6|
a4 g2|c'4 b2|a4 g2|a6:|
|:e4 f2|g3 f e2|d2 c2 B2|A6|
e4 f2|g3 f e2|d6-|d6|
e4 f2|g3 f e2|d2 c2 B2|A4 A2|
B4 B2|B2 G2 B2|A6-|A6:|

